X:124
T: Auf, auf ihr Jaeger all
N: D0181
O: Europa, Mitteleuropa, Deutschland, Untermainfranken, Spessart
N: Grundton in der zweigestrichenen Oktave; Inzipit = Transposition
R: Jaeger - Lied
M: 4/4
L: 1/4
K: C
G, | CCDD | E2F2 | GEFD | CA,G,
G, | CCDD | E2F2 | GEFD | C2z
D | DDB,D | DDB,G, | E3G, | E3
G, | FEDE | FEDC | B,G,ED | C2z
D | DDB,D | DDB,G, | E3G, | E3
G, | FEDE | FEDC | B,G,ED | C2z

@@@ Tune index: 2646
